X: 2370
T: the SENTINEL HORNPIPE
%R: hornpipe, reel
B: James Kerr "Merry Melodies" v.2 p.41 #370
Z: 2016 John Chambers <jc:trillian.mit.edu>
M: C
L: 1/8
K: D
(uAd) |\
fgfe dcdB | ABAG FGFE |\
DCDE FEFG | ABA^G A2 (ef) |\
gagf efed | cdcB ABAG |\
FAdf eABc | d2f2d2 :|
|: (ucd) |\
eAAA fAAA | gAfA eAAA |\
dFAd cEAc | dcdf eagf |\
eAAA fAAA | gAfA eAAA |\
dFAd cEAc | d2f2d2 :|
